X:1
T:Swanland, 76.76 D
T:Joseph Barnby (1838-1896)
T:Swanland, 76.76 D
T:Public Domain
C:Joseph Barnby (1838-1896)
Z:Public Domain
%%score ( 1 2 ) ( 3 4 )
L:1/8
M:4/4
K:Eb
V:1 treble 
V:2 treble 
V:3 bass 
V:4 bass 
V:1
 [B,G]2 | [B,F]2 [B,E]2 [EA]2 [EG]2 | [Ec]4 [_DB]2 [CA]2 | [EG]2 (FE) [B,F]2 [B,D]2 | %4
 [B,E]6 [B,G]2 | [CF]2 [CG]2 [C=A]2 [Fc]2 | [Fc]4 [FB]2 [Ee]2 | [Fd]2 (cB) [Fc]2 [F=A]2 | %8
 [FB]6 [DB]2 | [DF]2 [=EG]2 [FA]2 [FB]2 | [=EG]4 [FA]2 [FA]2 | [F_d]3 [Fd] [Ec]2 [EB]2 | %12
 [Ec]6 [Fd]2 | [Ee]2 [DB]2 [Cc]2 [EG]2 | [EB]4 [EA]2 (GF) | [EB]2 [EG]2 [DF]3 E | E6 |] %17
V:2
 x2 | x8 | x8 | x2 B,2 x4 | x8 | x8 | x8 | x2 F2 x4 | x8 | x8 | x8 | x8 | x8 | x8 | x6 E2 | x7 E | %16
 E6 |] %17
V:3
 [E,B,]2 | [E,A,]2 [E,G,]2 [E,C]2 [E,B,]2 | [E,A,]4 [E,G,]2 [A,,C]2 | %3
 [B,,B,]2 [B,,G,]2 [B,,A,]2 [B,,A,]2 | [E,G,]6 [E,B,]2 | [E,=A,]2 [E,G,]2 [E,F,]2 [E,A,]2 | %6
 [E,=A,]4 [D,B,]2 [G,B,]2 | [F,B,]2 [F,D]2 [F,E]2 [F,E]2 | [B,,D]6 B,2 | %9
 [A,B,]2 [G,B,]2 [F,C]2 [B,,_D]2 | [C,C]4 [F,C]2 [F,C]2 | B,2 z B,, [E,G,]2 [E,_D]2 | %12
 [A,C]6 [A,B,]2 | [G,B,]2 [F,A,]2 [E,G,]2 [_D,B,]2 | [C,G,]4 [C,A,]2 [A,,C]2 | %15
 [B,,G,]2 [B,,B,]2 [B,,A,]3 [E,G,] | [E,G,]6 |] %17
V:4
 x2 | x8 | x8 | x8 | x8 | x8 | x8 | x8 | x6 B,2 | x8 | x8 | B,,3 B,2 x3 | x8 | x8 | x8 | x8 | x6 |] %17

